packages/foundations/assets/icons/functional/images/transportation/car_24_inverted.svg

<svg width="24" height="24" viewBox="0 0 24 24" fill="none" xmlns="http://www.w3.org/2000/svg">
<g clip-path="url(#clip0_2214_6700)">
<path fill-rule="evenodd" clip-rule="evenodd" d="M17 4C17.9918 4 18.6865 4.66621 18.9809 5.62458L20 10H21.3518C21.6882 10 22 10.2665 22 10.5777C22 10.7851 22 11.0295 22 11.3107C22 11.6452 21.7387 12.0008 21.3518 12L20.5171 12.0006C20.5498 12.162 20.567 12.3795 20.567 12.536C20.567 12.6403 20.4376 13.7978 20.1787 16.0083C20.1495 16.2617 20.0891 16.5051 20.0014 16.7348L20 19C20 19.5523 19.5523 20 19 20H18.4C17.8477 20 17.4 19.5523 17.4 19V18.658C15.6 18.886 13.8 19 12 19C10.2 19 8.4 18.886 6.6 18.658V19C6.6 19.5523 6.15228 20 5.6 20H5C4.44772 20 4 19.5523 4 19L3.99971 16.7378C3.9327 16.5628 3.8815 16.3797 3.84788 16.1904L3.44951 12.7866C3.41842 12.5172 3.43139 12.2528 3.48269 12.0008L2.64823 12C2.2782 12 2 11.6787 2 11.3107V10.644C2 10.2753 2.2782 10 2.64823 10H4L4.978 5.78689C5.20875 4.79794 6.02464 4.07352 7 4H17ZM14.0056 13.75L9.86414 13.7569C9.47756 13.8024 9.1515 14.0697 9.03103 14.4399L8.73493 15.9196C8.69718 16.3802 8.98043 16.8718 9.53566 16.9806C10.0909 17.0893 10.5406 16.7489 10.6829 16.3092L10.801 15.749H13.186L13.3045 16.3092C13.4587 16.7855 13.9489 17.0812 14.4517 16.9806C14.9546 16.88 15.2934 16.4186 15.2525 15.9196L14.9564 14.4399C14.8239 14.0327 14.4426 13.75 14.0056 13.75ZM4.51942 13.8039C4.41884 14.3068 4.71449 14.7969 5.19085 14.9511L6.66956 15.2469C7.16857 15.2877 7.63001 14.949 7.73058 14.4461C7.83116 13.9432 7.53551 13.4531 7.05915 13.2989L5.58044 13.0031C5.08143 12.9623 4.61999 13.301 4.51942 13.8039ZM18.4196 13.0031L16.9408 13.2989C16.4645 13.4531 16.1688 13.9432 16.2694 14.4461C16.37 14.949 16.8314 15.2877 17.3304 15.2469L18.8092 14.9511C19.2855 14.7969 19.5812 14.3068 19.4806 13.8039C19.38 13.301 18.9186 12.9623 18.4196 13.0031ZM7.16396 5.69384C6.95574 5.69384 6.75789 5.83758 6.66609 6.06886L5.745 10H18.255L17.3692 6.17318C17.3097 5.91803 17.1304 5.7424 16.9271 5.70248L7.16396 5.69384Z" fill="#1A1C1F"/>
</g>
<defs>
<clipPath id="clip0_2214_6700">
<rect width="24" height="24" fill="white"/>
</clipPath>
</defs>
</svg>

<svg xmlns="http://www.w3.org/2000/svg" width="24" height="24" fill="none"><g clip-path="url(#a)"><path fill="#1A1C1F" fill-rule="evenodd" d="M17 4c.992 0 1.686.666 1.98 1.625L20 10h1.352c.336 0 .648.267.648.578v.733c0 .334-.261.69-.648.689h-.835c.033.162.05.38.05.536q0 .156-.388 3.472-.046.382-.178.727L20 19a1 1 0 0 1-1 1h-.6a1 1 0 0 1-1-1v-.342a43 43 0 0 1-10.8 0V19a1 1 0 0 1-1 1H5a1 1 0 0 1-1-1v-2.262a3 3 0 0 1-.152-.548l-.398-3.403A2.5 2.5 0 0 1 3.483 12L2.648 12c-.37 0-.648-.321-.648-.69v-.666A.63.63 0 0 1 2.648 10H4l.978-4.213C5.208 4.797 6.025 4.074 7 4zm-2.994 9.75-4.142.007a1 1 0 0 0-.833.683l-.296 1.48a.987.987 0 0 0 .8 1.06.99.99 0 0 0 1.148-.67l.118-.561h2.385l.119.56a1 1 0 0 0 1.947-.39l-.296-1.48a1 1 0 0 0-.95-.689m-9.487.054a1 1 0 0 0 .672 1.147l1.479.296a1 1 0 0 0 .39-1.948l-1.48-.296a1 1 0 0 0-1.06.8m13.9-.8-1.478.295a1 1 0 0 0 .39 1.948l1.478-.296a1 1 0 0 0-.39-1.948M7.165 5.693c-.208 0-.406.144-.498.375L5.745 10h12.51l-.886-3.827c-.06-.255-.239-.43-.442-.47z" clip-rule="evenodd"/></g><defs><clipPath id="a"><path fill="#fff" d="M0 0h24v24H0z"/></clipPath></defs></svg>
